X: 1292
T: BARTLETT'S WALTZ
B: Oliver Ditson "The Boston Collection of Instrumental Music" 1910 p.129 #2
F: http://conquest.imslp.info/files/imglnks/usimg/8/8f/IMSLP175643-PMLP309456-bostoncollection00bost_bw.pdf
%: 2012 John Chambers <jc:trillian.mit.edu>
M: 3/4
L: 1/8
K: D
|:\
f3def | {a}gfgec2 | f3def | gaceA2 |\
f3def | {a}gfgec2 | (ga).d.f (ec) | d4D2 H:|
(ed).c.e(c'a) | e4c2 | (ed).G.E(GB) | (dc).A.E(Ac) |\
(ed).c.e(c'a) | e4c2 | (ed).G.E(GB) | d2c2A2 "^D.C."|]

%%sep 1 1 500
%%sep 1 1 500
